assets/Package/Flat/package_flat.svg

<svg width="32" height="32" viewBox="0 0 32 32" fill="none" xmlns="http://www.w3.org/2000/svg">
<path d="M15.35 2.1425C15.67 1.9525 16.06 1.9525 16.37 2.1425L27.29 8.7825C27.55 8.9425 27.71 9.2325 27.71 9.5325L15.86 17.5L4 9.63243V9.5325C4 9.2325 4.16 8.9425 4.42 8.7925L15.35 2.1425Z" fill="#F3C07B"/>
<path d="M15.856 16.2463L27.216 9.34633C27.2658 9.31663 27.3227 9.30067 27.3807 9.30007C27.4387 9.29946 27.4958 9.31425 27.5462 9.34291C27.5966 9.37158 27.6385 9.41307 27.6676 9.46321C27.6968 9.51335 27.7121 9.57032 27.7121 9.62831V21.9683C27.7122 22.2655 27.6359 22.5577 27.4905 22.8169C27.3452 23.0761 27.1356 23.2934 26.882 23.4483L16.2421 29.9083C16.215 29.9232 16.1855 29.9334 16.155 29.9384C16.1281 29.9464 16.1001 29.9501 16.072 29.9494C15.9585 29.9812 15.8398 29.9903 15.7227 29.9761C15.6056 29.9618 15.4926 29.9245 15.39 29.8664H15.396L13 19L15.856 16.2463Z" fill="#FFCE7C"/>
<path d="M15.86 29.6224V16.2524L4.51 9.35243C4.28 9.21243 4 9.37243 4 9.63243V21.9724C4 22.5824 4.32 23.1424 4.83 23.4524L15.4 29.8724C15.6 30.0024 15.86 29.8524 15.86 29.6224Z" fill="#E19747"/>
<path d="M14.5 26.7824V24.8224C14.5 24.5924 14.38 24.3824 14.19 24.2624L11.39 22.5724C11.2 22.4624 10.96 22.5924 10.96 22.8124V24.7724C10.96 25.0024 11.08 25.2124 11.27 25.3324L14.07 27.0224C14.26 27.1324 14.5 27.0024 14.5 26.7824Z" fill="#D3D3D3"/>
<path d="M11.76 16.5525V13.7625V11.9926L8.48001 11.7725V14.9325C8.48001 15.0325 8.53001 15.1325 8.62001 15.1925L11.3 16.8225C11.5 16.9325 11.76 16.7925 11.76 16.5525Z" fill="#8C5543"/>
<path d="M20.34 4.5625L8.48001 11.7725L11.76 13.7725L23.62 6.5725L20.34 4.5625Z" fill="#A56953"/>
</svg>

<svg xmlns="http://www.w3.org/2000/svg" width="32" height="32" fill="none"><path fill="#F3C07B" d="M15.35 2.143c.32-.19.71-.19 1.02 0l10.92 6.64c.26.16.42.45.42.75L15.86 17.5 4 9.632v-.1c0-.3.16-.59.42-.74l10.93-6.65Z"/><path fill="#FFCE7C" d="m15.856 16.246 11.36-6.9a.328.328 0 0 1 .496.282v12.34a1.733 1.733 0 0 1-.83 1.48l-10.64 6.46a.272.272 0 0 1-.087.03.268.268 0 0 1-.083.011.895.895 0 0 1-.682-.083h.006L13 19l2.856-2.754Z"/><path fill="#E19747" d="M15.86 29.622v-13.37l-11.35-6.9a.331.331 0 0 0-.51.28v12.34c0 .61.32 1.17.83 1.48l10.57 6.42a.3.3 0 0 0 .46-.25Z"/><path fill="#D3D3D3" d="M14.5 26.782v-1.96c0-.23-.12-.44-.31-.56l-2.8-1.69c-.19-.11-.43.02-.43.24v1.96c0 .23.12.44.31.56l2.8 1.69c.19.11.43-.02.43-.24Z"/><path fill="#8C5543" d="M11.76 16.552V11.992l-3.28-.22v3.16c0 .1.05.2.14.26l2.68 1.63c.2.11.46-.03.46-.27Z"/><path fill="#A56953" d="m20.34 4.563-11.86 7.21 3.28 2 11.86-7.2-3.28-2.01Z"/></svg>
